!!!!SEGMENT: pl-kk--kk-i-6--040-002_anonim--missa-supra-resonet-et-in-terra.krn
!!!cenid: 16xx:1031
!!!COM: Anonim
!!!COM-rismid: pe30004985
!!!CDT:
!!!CNT:
!!!OPR: Missa supra Resonet
!!!OTL: Et in terra
!!!OMV: 002
!!!PDT:
!!!AGN: Sacred; Mass
!!!SMS-siglum: PL-Kk
!!!SMS-shelfmark: Kk.I.6
!!!SMS-shelfwork: 040-002 M
!!!SMS-variant:
!!!SMS-altvar:
!!!NIFC-rismid: 1001136502
!!!URL-scan: http://repozytorium.nifc.pl/skany/pl-kk-nut--i-6
!!!ONB-nifc: UWAGA: C (skan 0062-0064, s. 120-124), T (skan 0174-0176, s. 152-156), B (skan 0283-0285, s. 148-152) Części Mszy: 1. Kyrie, 2. Et in terra, 3. Sanctus, 4. Agnus Dei
!!!key:
**kern	**text	**dynam	**kern	**text	**dynam	**kern	**text	**dynam
*part3	*part3	*part3	*part2	*part2	*part2	*part1	*part1	*part1
*staff3	*staff3	*	*staff2	*staff2	*	*staff1	*staff1	*
*Iempty	*	*	*Itenor	*	*	*Ivox	*	*
*I"Baſsus.	*	*	*I"Tenor.	*	*	*I"Cantus.	*	*
*I'B	*	*	*I'T	*	*	*I'S	*	*
*clefF4	*	*	*clefC4	*	*	*clefC1	*	*
*k[]	*	*	*k[]	*	*	*k[]	*	*
*G:	*	*	*G:	*	*	*G:	*	*
*M3/2	*	*	*M3/2	*	*	*M3/2	*	*
=1	=1	=1	=1	=1	=1	=1	=1	=1
!	!	!	!	!	!	!LO:TX:t=P:problem:f=Forte	!	!
!	!	!	!	!	!	!LO:TX:t=P:problem:p=[coś dziwnego, co wygląda jak "echo"]	!	!
1GG/	ET	.	1B\	ET	.	1dd\	ET	.
!	!	!	!LO:TX:t=P:problem:all\left or center	!	!	!LO:TX:t=P:problem:all\left or center	!	!
2BB/	in	.	2B\	in	.	2dd\	in	.
=2-	=2-	=2-	=2-	=2-	=2-	=2-	=2-	=2-
1C/	ter-	.	1A\	ter-	.	1cc\	ter-	.
2D/	-ra	.	2A/	-ra	.	2a\	-ra	.
=3-	=3-	=3-	=3-	=3-	=3-	=3-	=3-	=3-
1GG/	pax	.	1d\	pax	.	1b\	pax	.
2GG/	ho-	.	2d\	ho-	.	2b\	ho-	.
=4-	=4-	=4-	=4-	=4-	=4-	=4-	=4-	=4-
!LO:TX:t=P:problem:all\left or center	!	!	!	!	!	!	!	!
2.G\	-mi-	.	2.d\	-mi-	.	2.b\	-mi-	.
4G\	-ni-	.	4d\	-ni-	.	4b\	-ni-	.
!LO:TX:t=P:problem:oddech jako rozdzielacz słów:global	!	!	!	!	!	!	!	!
2G,<\	-bus	.	2d\	-bus	.	2b\	-bus	.
=5-	=5-	=5-	=5-	=5-	=5-	=5-	=5-	=5-
2.D/	bo-	.	2.d\	bo-	.	2.a\	bo-	.
4D/	-nae	.	4d\	-nae	.	4a\	-nae	.
2D/	Vo-	.	2A/	Vo-	.	2dd\	Vo-	.
=6-	=6-	=6-	=6-	=6-	=6-	=6-	=6-	=6-
2D/	-lun-	.	2A/	-lun-	.	2dd\	-lun-	.
!	!	!	!	!	!	!LO:TX:t=P:problem:♯above	!	!
1AA/	-ta-	.	1A\	-ta-	.	1cc#X\	-ta-	.
=7-	=7-	=7-	=7-	=7-	=7-	=7-	=7-	=7-
!	!	!	!LO:TX:t=P:problem:oddech jako rozdzielacz słów:global	!	!	!LO:TX:t=P:problem:oddech jako rozdzielacz słów:global	!	!
1D\,<	-tis	.	1A\,<	-tis	.	1dd\,<	-tis	.
2G\	Lau-	.	2d\	Lau-	.	2b\	Lau-	.
=8-	=8-	=8-	=8-	=8-	=8-	=8-	=8-	=8-
1G\	-da-	.	1d\	-da-	.	1b\	-da-	.
!	!	!	!	!	!	!LO:SIC:v:t=custos b	!	!
2C/	-muſ	.	2e\	-mus	.	2ccny\	-mus	.
=9-	=9-	=9-	=9-	=9-	=9-	=9-	=9-	=9-
!	!	!	!	!	!	!LO:LB:g=original	!	!
1G\,<	te	.	2d,<\	te	.	2b\	te	.
.	.	.	2d\	be-	.	2b\	be-	.
!LO:SIC:v:t=custos AA	!	!	!LO:SIC:v:t=custos c	!	!	!	!	!
2GG/	be-	.	2d\	-ne-	.	2b\	-ne-	.
=10-	=10-	=10-	=10-	=10-	=10-	=10-	=10-	=10-
!LO:PB:g=original	!	!	!LO:LB:g=original	!	!	!	!	!
1AA/	-ne-	.	1c\	-di-	.	1a\	-di-	.
2BB/	-di-	.	2B\	-ci-	.	2g/	-ci-	.
=11-	=11-	=11-	=11-	=11-	=11-	=11-	=11-	=11-
2C/	-ci-	.	1A\	-mus	.	1g\	.	.
2.D/	.	.	.	.	.	.	.	.
!	!	!	!	!	!	!LO:TX:t=P:problem:♯above	!	!
.	.	.	2A,</	te	.	2f#X/	-mus	.
4D/	-mus	.	.	.	.	.	.	.
=12-	=12-	=12-	=12-	=12-	=12-	=12-	=12-	=12-
2GG,</	te	.	(2B\	A-	.	2g,</	te	.
2G\	a-	.	2B\	.	.	2dd\	A-	.
2G\	-do-	.	2B\)	-do-	.	2dd\	-do-	.
=13-	=13-	=13-	=13-	=13-	=13-	=13-	=13-	=13-
2.C/	-ra-	.	1c\	-ra-	.	1ee\	-ra-	.
4D/	.	.	.	.	.	.	.	.
(4E\	-mus	.	2c\	-mus	.	2ee\	-mus	.
4F\)	.	.	.	.	.	.	.	.
=14-	=14-	=14-	=14-	=14-	=14-	=14-	=14-	=14-
1G\	te	.	1B\,<	te	.	1dd,<\	te	.
2GG,</	glo-	.	2B\	glo-	.	2dd\	glo-	.
=15-	=15-	=15-	=15-	=15-	=15-	=15-	=15-	=15-
1AA/	-ri-	.	1A\	-ri-	.	1cc\	-ri-	.
2BB/	-fi-	.	2G/	-fi-	.	2b\	-fi-	.
=16-	=16-	=16-	=16-	=16-	=16-	=16-	=16-	=16-
!	!	!	!	!	!	!LO:SIC:v:l:s==ca-	!	!
1C/	-ca-	.	1G/	-ca-	.	1a\	-ci-na-	.
!	!	!	!LO:TX:t=P:problem:♯below	!	!	!	!	!
2D/	-mus	.	2F#X/	-mus	.	2a\	-mus	.
=17-	=17-	=17-	=17-	=17-	=17-	=17-	=17-	=17-
1.GG/	te	.	1.G/	te	.	1.b\	te	.
=18-	=18-	=18-	=18-	=18-	=18-	=18-	=18-	=18-
2.E\	Gra-	.	2.B\	Gra-	.	2.ee\	Gra-	.
4E\	-ti-	.	4B\	-ti-	.	4ee\	-ti-	.
!LO:SIC:v:t=custos AA	!	!	!	!	!	!LO:SIC:v:t=custos ee	!	!
2E\	-as	.	2B\	-as	.	2ee\	-as	.
=19-	=19-	=19-	=19-	=19-	=19-	=19-	=19-	=19-
!LO:LB:g=original	!	!	!	!	!	!LO:LB:g=original	!	!
2.AA/	a-	.	2.c\	a-	.	2.ee\	a-	.
4AA/	-gi-	.	4c\	-gi-	.	4ee\	-gi-	.
2AA/	-mus	.	2c\	-mus	.	2ee\	-mus	.
=20-	=20-	=20-	=20-	=20-	=20-	=20-	=20-	=20-
1E\	ti-	.	1B\	ti-	.	1ee\	ti-	.
2E\,<	-bi	.	2B,<\	-bi	.	2ee\,<	-bi	.
=21-	=21-	=21-	=21-	=21-	=21-	=21-	=21-	=21-
2.C/	Gra-	.	2.c\	Gra-	.	2.ee\	Gra-	.
4C/	-ti-	.	4c\	-ti-	.	4ee\	-[ti-	.
2C/	-as	.	2c\	-as	.	2ee\	-a]s	.
=22-	=22-	=22-	=22-	=22-	=22-	=22-	=22-	=22-
2.G\	a-	.	2.B\	a-	.	2.dd\	a-	.
4G\	-gi-	.	4B\	-gi-	.	4dd\	-gi-	.
2G\	-mus	.	2B\	-mus	.	2dd\	-mus	.
=23-	=23-	=23-	=23-	=23-	=23-	=23-	=23-	=23-
1C/	ti-	.	1e\	ti-	.	1cc\	ti-	.
2C,</	-bi	.	2e,<\	-bi	.	2cc,<\	-bi	.
=24-	=24-	=24-	=24-	=24-	=24-	=24-	=24-	=24-
1C/	p(ro)-	.	1c\	p(ro)-	.	1ee\	p(ro)-	.
2C/	-pter	.	2c\	-pter	.	2ee\	-pter	.
=25-	=25-	=25-	=25-	=25-	=25-	=25-	=25-	=25-
1C/	ma-	.	1G/	ma-	.	2.ee\	ma-	.
.	.	.	.	.	.	4dd\	-gnam	.
2C,</	-gnam	.	2G/	-gnam	.	2cc\	g(lo-	.
=26-	=26-	=26-	=26-	=26-	=26-	=26-	=26-	=26-
2C/	g(lo-	.	2c\	g(lo-	.	2ee\	.	.
4C/	-ri)-	.	4c\	-ri)-	.	4ee\	-ri)-	.
4C/	-am	.	4c\	-am	.	4ee\	-am	.
2F\	tu-	.	2A/	tu-	.	(4cc\	tu-	.
!	!	!	!	!	!	!LO:SIC:v:t=custos ee	!	!
.	.	.	.	.	.	4dd\)	-[[am]]-	.
=27-	=27-	=27-	=27-	=27-	=27-	=27-	=27-	=27-
!	!	!	!	!	!	!LO:LB:g=original	!	!
2C,</	-am	.	2G,</	-am	.	2ee,<\	-am	.
4C/	D(o-	.	4e\	D(o-	.	4g/	D(o-	.
4C/	-mi)-	.	4e\	-mi)-	.	4g/	-mi)-	.
!LO:SIC:v:t=custos FF	!	!	!	!	!	!	!	!
2AA/	-ne	.	2c\	-ne	.	2a\	-ne	.
=28-	=28-	=28-	=28-	=28-	=28-	=28-	=28-	=28-
!LO:LB:g=original	!	!	!	!	!	!	!	!
2.FF/	De-	.	2.f\	De-	.	1cc\	De-	.
4GG/	.	.	8e\L	.	.	.	.	.
!	!	!	!LO:SIC:v:t=custos c	!	!	!	!	!
.	.	.	8d\J	.	.	.	.	.
!	!	!	!LO:LB:g=original	!	!	!	!	!
(4AA/	-us	.	4c\	.	.	2a\	-us	.
4BB/)	.	.	4d\	.	.	.	.	.
=29-	=29-	=29-	=29-	=29-	=29-	=29-	=29-	=29-
2.C/	Rex	.	2.e\	-us	.	2.cc\	Rex	.
4C/	cae-	.	4e\	Rex	.	4cc\	cae-	.
2D/	-le-	.	2f\	cae-	.	2b\	-le-	.
=30-	=30-	=30-	=30-	=30-	=30-	=30-	=30-	=30-
2C,</	-ſtis	.	2e\	-le-	.	2cc,<\	-ſtis	.
2C/	De-	.	2c\	.	.	2ee\	De-	.
2D/	-us	.	2B,<\	-ſtis	.	2dd\	-us	.
=31-	=31-	=31-	=31-	=31-	=31-	=31-	=31-	=31-
2C/	Pa-	.	2c\	De-	.	2g/	Pa-	.
2C/	-ter	.	2c\	-us	.	2g/	-ter	.
2C/	o-	.	2e\	Pa-	.	2cc\	o-	.
=32-	=32-	=32-	=32-	=32-	=32-	=32-	=32-	=32-
2.F\	-mni-	.	4A/	-ter	.	2.cc\	-mni-	.
.	.	.	4B\	o-	.	.	.	.
.	.	.	4.c\	-mni-	.	.	.	.
4F\	-po-	.	.	.	.	8b\L	-po-	.
.	.	.	8c\	-po-	.	8a\J	.	.
2G\	-tens	.	2B,<\	-tens	.	2g,</	-tens	.
=33-	=33-	=33-	=33-	=33-	=33-	=33-	=33-	=33-
2.C/	D(o-	.	2.c\	Do-	.	2.g/	D(o-	.
4C/	-mi)-	.	4c\	-mi-	.	4g/	-mi)-	.
2C/	-ne	.	2e\	-ne	.	2g/	-ne	.
=34-	=34-	=34-	=34-	=34-	=34-	=34-	=34-	=34-
1C/	Fi-	.	1c\	Fi-	.	1g\	Fi-	.
!	!	!	!	!	!	!LO:SIC:v:t=custos g	!	!
2AA/	-li	.	2c\	-li	.	2a\	-li	.
=35-	=35-	=35-	=35-	=35-	=35-	=35-	=35-	=35-
!	!	!	!	!	!	!LO:LB:g=original	!	!
4C/	Fi-	.	4c\	Fi-	.	1g\	Fi-	.
4D/	.	.	8B\L	.	.	.	.	.
.	.	.	8A\J	.	.	.	.	.
4E\	.	.	4G/	-li	.	.	.	.
!	!	!	!LO:SIC:v:t=custos B	!	!	!	!	!
4F\	.	.	4A/	.	.	.	.	.
!LO:SIC:v:t=custos D	!	!	!LO:LB:g=original	!	!	!	!	!
2G\	-li	.	4B\	.	.	2g/	-li	.
.	.	.	4c\	.	.	.	.	.
=36-	=36-	=36-	=36-	=36-	=36-	=36-	=36-	=36-
!LO:LB:g=original	!	!	!	!	!	!	!	!
1D\	V-	.	1d\	V-	.	(4a\	V-	.
.	.	.	.	.	.	4g\)	.	.
.	.	.	.	.	.	(4a\	-ni-	.
.	.	.	.	.	.	4b\)	.	.
2E\	-ni-	.	2c\	-ni-	.	2cc\	-ge-	.
=37-	=37-	=37-	=37-	=37-	=37-	=37-	=37-	=37-
2F\	-ge-	.	2c\	-ge-	.	2.a\	.	.
2G\	.	.	2.c\	.	.	.	.	.
.	.	.	.	.	.	4g/	.	.
2GG/	-ni-	.	.	.	.	2g/	-ni-	.
.	.	.	4B\	-ni-	.	.	.	.
=38-	=38-	=38-	=38-	=38-	=38-	=38-	=38-	=38-
*M2/1	*	*	*M2/1	*	*	*M2/1	*	*
*met(c|)	*	*	*met(c|)	*	*	*met(c|)	*	*
2C,</	-te,	.	2c,<\	-te	.	2g/	-te,	.
2.C/	Je-	.	2G/	Je-	.	1ee\	Je-	.
.	.	.	0G/	-ſu	.	.	.	.
4D/	.	.	.	.	.	.	.	.
!	!	!	!	!	!	!LO:TX:t=P:problem:kreska pseudotaktowa	!	!
4E\	.	.	.	.	.	2ee\	-ſu	.
4F\	.	.	.	.	.	.	.	.
=39-	=39-	=39-	=39-	=39-	=39-	=39-	=39-	=39-
*	*	*	*	*	*	*	*ij	*
2G\	.	.	.	.	.	2dd\	Je-	.
!	!	!	!	!	!	!LO:TX:t=P:problem:kreska pseudotaktowa	!	!
2E\	-ſu	.	.	.	.	2ee\	-ſu	.
*	*	*	*	*	*	*	*Xij	*
0D\	chri-	.	2c\	chri-	.	2a\	chri-	.
.	.	.	2B\	.	.	4b\	.	.
.	.	.	.	.	.	4cc\	.	.
=40-	=40-	=40-	=40-	=40-	=40-	=40-	=40-	=40-
!	!	!	!	!	!	!LO:TX:t=P:problem:kreska pseudotaktowa	!	!
.	.	.	1A\	-ſte	.	1dd\	.	.
2GG,</	-ſte	.	2G,</	.	.	2b,<\	ſte	.
4G\	D(o-	.	4B\	D(o-	.	4dd\	D(o-	.
8G\	-mi)-	.	8B\	-mi)-	.	8dd\	-mi)-	.
!	!	!	!	!	!	!LO:TX:t=P:problem:kreska pseudotaktowa	!	!
!	!	!	!	!	!	!LO:SIC:v:t=custos dd	!	!
8G\	-ne	.	8B\	-ne	.	8dd\	-ne	.
=41-	=41-	=41-	=41-	=41-	=41-	=41-	=41-	=41-
!	!	!	!	!	!	!LO:LB:g=original	!	!
4G\	De-	.	4B\	De-	.	4dd\	De-	.
4E\	-us	.	4c\	-us	.	4ee\	-us	.
4F\	A-	.	4A\	A-	.	4cc\	a-	.
!	!	!	!	!	!	!LO:TX:t=P:problem:kreska pseudotaktowa	!	!
4D/	-gnus	.	4B\	-gnus	.	4dd\	-gnus	.
!LO:SIC:v:t=custos D	!	!	!LO:SIC:v:t=custos B	!	!	!	!	!
2C/	De-	.	2c\	De-	.	2ee\	De-	.
!LO:LB:g=original	!	!	!LO:LB:g=original	!	!	!	!	!
4GG,</	-i	.	4B\	-i	.	4dd\	-i	.
4.G\	Fi-	.	4.B\	Fi-	.	4.dd\	Fi-	.
=42-	=42-	=42-	=42-	=42-	=42-	=42-	=42-	=42-
.	.	.	.	.	.	.	.	.
8G\	-li-	.	8B\	-li-	.	8dd\	-li-	.
4E\	-us	.	4c\	-us	.	4ee\	-us	.
4.F\	Pa-	.	8A\L	Pa-	.	8cc\L	Pa-	.
.	.	.	8G\	.	.	8b\	.	.
.	.	.	8A\	.	.	8cc\	.	.
!	!	!	!	!	!	!LO:TX:t=P:problem:kreska pseudotaktowa	!	!
16E\LL	.	.	8B\J	.	.	8dd\J	.	.
16D\JJ	.	.	.	.	.	.	.	.
8C/L	.	.	8c\L	.	.	8ee\L	.	.
8D/J	.	.	16B\L	.	.	8ff\J	.	.
.	.	.	16A\JJ	.	.	.	.	.
8E\L	.	.	8G\L	.	.	8gg\L	.	.
8F\J	.	.	8A\J	.	.	16ff\L	.	.
.	.	.	.	.	.	16ee\JJ	.	.
4.G\	.	.	8B\L	.	.	8dd\L	.	.
.	.	.	8A\	.	.	8cc\	.	.
.	.	.	8B\	.	.	8dd\	.	.
!	!	!	!	!	!	!LO:TX:t=P:problem:kreska pseudotaktowa	!	!
16F\LL	.	.	8c\J	.	.	8ee\J	.	.
16E\JJ	.	.	.	.	.	.	.	.
=43-	=43-	=43-	=43-	=43-	=43-	=43-	=43-	=43-
4D\	.	.	4d\	.	.	4ff\	.	.
4E\	.	.	2c\	.	.	4ee\	.	.
!	!	!	!	!	!	!LO:TX:t=P:problem:kreska pseudotaktowa	!	!
4F\	.	.	.	.	.	2dd\	.	.
4G\	.	.	4B\	.	.	.	.	.
4C,</	-tris	.	4c,<\	-tris	.	4cc\	-tris	.
4C/	Qui	.	4e\	Qui	.	4cc\	Qui	.
4G\	tol-	.	4d\	tol-	.	4b\	tol-	.
8G\	-lis	.	8d\	-lis	.	8b\	-lis	.
!	!	!	!	!	!	!LO:TX:t=P:problem:kreska pseudotaktowa	!	!
!	!	!	!	!	!	!LO:SIC:v:t=custos a	!	!
8E\	pec-	.	8e\	pec-	.	8cc\	pec-	.
=44-	=44-	=44-	=44-	=44-	=44-	=44-	=44-	=44-
!	!	!	!	!	!	!LO:LB:g=original	!	!
4F\	-ca-	.	4c\	-ca-	.	4a\	-ca-	.
8F\	-ta	.	8c\	-ta	.	8a\	-ta	.
!	!	!	!LO:SIC:v:t=custos B	!	!	!	!	!
*	*ij	*	*	*	*	*	*	*
8D/	pec-	.	8d\	pec-	.	8b\	pec-	.
!	!	!	!LO:LB:g=original	!	!	!	!	!
4E\	-ca-	.	8B\L	-ca-	.	8g/L	-ca-	.
.	.	.	16A\L	.	.	16fny/L	.	.
.	.	.	16B\JJ	.	.	16g/JJ	.	.
!LO:SIC:v:t=custos D	!	!	!	!	!	!	!	!
4C/	-ta	.	2c\	.	.	2a\	.	.
*	*Xij	*	*	*	*	*	*	*
!LO:LB:g=original	!	!	!	!	!	!	!	!
1D\	mun-	.	.	.	.	.	.	.
.	.	.	4B\	-ta	.	2g/	-ta	.
.	.	.	2A/	mun-	.	.	.	.
!	!	!	!	!	!	!LO:TX:t=P:problem:kreska pseudotaktowa	!	!
!	!	!	!	!	!	!LO:TX:t=P:problem:♯below	!	!
.	.	.	.	.	.	4f#/	mun-	.
=45-	=45-	=45-	=45-	=45-	=45-	=45-	=45-	=45-
4GG,</	-di	.	4B,<\	-di	.	4g/	-di	.
8G\	Mi-	.	8B\	Mi-	.	8dd\	Mi-	.
8G\	-ſe-	.	8B\	-ſe-	.	8dd\	-ſe-	.
4G\	-re-	.	(4B\	-re-	.	4dd\	-re-	.
!	!	!	!	!	!	!LO:TX:t=P:problem:kreska pseudotaktowa	!	!
4E\	-re	.	2e\)	.	.	4ee\	-re	.
4.F\	no-	.	.	.	.	4cc\	no-	.
.	.	.	4d\	-re	.	4ff\	.	.
8G\	.	.	.	.	.	.	.	.
!	!	!	!	!	!	!LO:TX:t=P:problem:kreska pseudotaktowa	!	!
2A\	.	.	4d\	no-	.	2ee\	.	.
!	!	!	!LO:TX:t=P:problem:♯above	!	!	!	!	!
.	.	.	4c#X\	.	.	.	.	.
=46-	=46-	=46-	=46-	=46-	=46-	=46-	=46-	=46-
4D,</	-bis	.	4d\	-bis	.	4dd\	-bis	.
4D/	Qui	.	4B\	Qui	.	4dd\	qui	.
4G\	tol-	.	4B\	tol-	.	4dd\	tol-	.
8E\	-lis	.	8cny\	-lis	.	8ee\	-lis	.
!	!	!	!	!	!	!LO:TX:t=P:problem:kreska pseudotaktowa	!	!
8E\	pec-	.	8c\	pec-	.	8ee\	pec-	.
4F\	-ca-	.	4c\	-ca-	.	4cc\	-ca-	.
8D,</	-ta	.	8B\	-ta	.	8dd,<\	-ta	.
8D/	pec-	.	8B\	pec-	.	8dd\	pec-	.
4E\	-ca-	.	4B\	-ca-	.	4b\	-ca-	.
!	!	!	!	!	!	!LO:TX:t=P:problem:kreska pseudotaktowa	!	!
8C,</	-ta	.	4A,</	-ta	.	4cc\	-ta	.
8C/	pec-	.	.	.	.	.	.	.
=47-	=47-	=47-	=47-	=47-	=47-	=47-	=47-	=47-
4D/	-ca-	.	4A/	pec-	.	4a\	mun-	.
!	!	!	!	!	!	!LO:SIC:v:t=custos a	!	!
4BB/	-ta	.	8B\	-ca-	.	4g\	.	.
!	!	!	!LO:SIC:v:t=custos c	!	!	!	!	!
.	.	.	8d\	-ta	.	.	.	.
!	!	!	!	!	!	!LO:TX:t=P:problem:kreska pseudotaktowa	!	!
!	!	!	!LO:LB:g=original	!	!	!LO:LB:g=original	!	!
(4C/	mun-	.	4c\	mun-	.	2a\	.	.
4D/)	.	.	4A/	.	.	.	.	.
!LO:SIC:v:t=custos G	!	!	!	!	!	!	!	!
1GG/,<	-di	.	1B\	-di	.	1g\	-di.	.
=48-	=48-	=48-	=48-	=48-	=48-	=48-	=48-	=48-
*M3/2	*	*	*M3/2	*	*	*M3/2	*	*
!LO:LB:g=original	!	!	!	!	!	!	!	!
1G\	Sus-	.	1B\	Sus-	.	1dd\	Sus-	.
2GG/	-ci-	.	2G/	-ci-	.	2b\	-ci-	.
=49-	=49-	=49-	=49-	=49-	=49-	=49-	=49-	=49-
1.GG/	-pe	.	1.B\	-pe	.	1.dd\	-pe	.
=50-	=50-	=50-	=50-	=50-	=50-	=50-	=50-	=50-
1G\	de-	.	1d\	de-	.	1g\	de-	.
!LO:TX:t=P:problem:♯below	!	!	!	!	!	!	!	!
2F#X\	-pre-	.	2d\	-pre-	.	2a\	-pre-	.
=51-	=51-	=51-	=51-	=51-	=51-	=51-	=51-	=51-
1G\	-ca-	.	1d\	-ca-	.	1b\	-ca-	.
2C/	-ti-	.	2e\	-ti-	.	2cc\	-ti-	.
=52-	=52-	=52-	=52-	=52-	=52-	=52-	=52-	=52-
2.GG/	-o-	.	2.G/	-o-	.	2.b\	-o-	.
4GG/	-nem	.	4G/	-nem	.	4b\	-nem	.
!	!	!	!LO:TX:t=P:problem:♯below	!	!	!	!	!
2D/	no-	.	2F#X/	no-	.	2a\	no-	.
=53-	=53-	=53-	=53-	=53-	=53-	=53-	=53-	=53-
1.GG/	-ſtram	.	1.G/	-ſtram	.	1.b\	-ſtram	.
=54-	=54-	=54-	=54-	=54-	=54-	=54-	=54-	=54-
1G\	Qui	.	1G/	Qui	.	1dd\	Qui	.
!LO:TX:t=P:problem:♯below	!	!	!	!	!	!	!	!
2F#X\	ſe-	.	2A/	ſe-	.	2dd\	ſe-	.
=55-	=55-	=55-	=55-	=55-	=55-	=55-	=55-	=55-
1G\	-des	.	1B\	-des	.	1dd\	-des	.
!	!	!	!LO:SIC:v:t=custos B	!	!	!LO:SIC:v:t=custos d	!	!
2C/	ad	.	2c\	ad	.	2ee\	ad	.
=56-	=56-	=56-	=56-	=56-	=56-	=56-	=56-	=56-
!	!	!	!LO:PB:g=original	!	!	!LO:PB:g=original	!	!
2GG/	dex-	.	2B\	dex-	.	2dd\	dex-	.
4GG/	-te-	.	4B\	-te-	.	4dd\	-te-	.
4GG/	-ram	.	4B\	-ram	.	4dd\	-ram	.
!LO:SIC:v:t=custos G	!	!	!	!	!	!	!	!
2D/	Pa-	.	2A/	Pa-	.	2dd\	Pa-	.
=57-	=57-	=57-	=57-	=57-	=57-	=57-	=57-	=57-
!LO:LB:g=original	!	!	!	!	!	!	!	!
2GG,</	-tris	.	2G,</	-tris	.	2b\	-tris	.
2GG/	Mi-	.	2d\	Mi-	.	2b\	mi-	.
2GG/	-ſe-	.	2d\	-ſe-	.	2b\	-ſe-	.
=58-	=58-	=58-	=58-	=58-	=58-	=58-	=58-	=58-
1AA/	-re-	.	1c\	-re-	.	1a\	-re-	.
2BB/	-re	.	2B\	-re	.	2g/	-re	.
=59-	=59-	=59-	=59-	=59-	=59-	=59-	=59-	=59-
2C/	no-	.	2.A/	no-	.	1g\	no-	.
1D\	.	.	.	.	.	.	.	.
.	.	.	4G/	.	.	.	.	.
!	!	!	!	!	!	!LO:TX:t=P:problem:♯below	!	!
.	.	.	2A/	.	.	2f#X/	.	.
=60-	=60-	=60-	=60-	=60-	=60-	=60-	=60-	=60-
1.GG/	-bis	.	1.B\	-bis.	.	1.g\	-bis	.
=61-	=61-	=61-	=61-	=61-	=61-	=61-	=61-	=61-
2.C/	Quo-	.	2.c\	Quo-	.	2.ee\	Quo-	.
4C/	-ni-	.	4c\	-ni-	.	4ee\	-ni-	.
2C,</	-am	.	2c\	-am	.	2ee\	-am	.
=62-	=62-	=62-	=62-	=62-	=62-	=62-	=62-	=62-
*	*ij	*	*	*ij	*	*	*ij	*
2.GG/	Quo-	.	2.B\	Quo-	.	2.dd\	Quo-	.
4GG/	-ni-	.	4B\	-ni-	.	4dd\	-ni-	.
2C,</	-am	.	2c\	-am	.	2cc\	-am	.
*	*Xij	*	*	*Xij	*	*	*Xij	*
=63-	=63-	=63-	=63-	=63-	=63-	=63-	=63-	=63-
2C/	tu	.	2e\	tu	.	1r	.	.
2E\	So-	.	2e\	So-	.	.	.	.
!	!	!	!LO:SIC:v:t=custos c	!	!	!	!	!
2G\	-lus	.	2d\	-lus	.	2ee\	tu	.
=64-	=64-	=64-	=64-	=64-	=64-	=64-	=64-	=64-
!	!	!	!LO:LB:g=original	!	!	!	!	!
1C/	San-	.	2c\	San-	.	2ee\	So-	.
!	!	!	!	!	!	!LO:SIC:v:t=custos c	!	!
.	.	.	2c\	-ctus	.	2dd\	-lus	.
!LO:SIC:v:t=custos C	!	!	!LO:TX:t=P:problem:kreska pseudotaktowa	!	!	!LO:LB:g=original	!	!
2GG/	-ctus	.	2r	.	.	2cc\	San-	.
=65-	=65-	=65-	=65-	=65-	=65-	=65-	=65-	=65-
!LO:PB:g=original	!	!	!	!	!	!	!	!
2C/	tu	.	2e\	tu	.	2cc\	-ctus	.
2E\	So-	.	2e\	So-	.	1r	.	.
2G\	-lus	.	2d\	-lus	.	.	.	.
=66-	=66-	=66-	=66-	=66-	=66-	=66-	=66-	=66-
2.C/	Do-	.	2.c\	Do-	.	2ee\	tu	.
.	.	.	.	.	.	2ee\	So-	.
4C/	-mi-	.	4c\	-mi-	.	.	.	.
2GG,</	-nus	.	2B\	-nus	.	2dd\	-lus	.
=67-	=67-	=67-	=67-	=67-	=67-	=67-	=67-	=67-
2C/	tu	.	2.e\	Tu	.	2.cc\	D(o-	.
2E\	So-	.	.	.	.	.	.	.
.	.	.	4e\	So-	.	4cc\	-mi)-	.
2G\	-lus	.	4d\	-lus	.	4b\,<	-nus	.
.	.	.	4B\	al-	.	4dd\	Tu	.
=68-	=68-	=68-	=68-	=68-	=68-	=68-	=68-	=68-
2.C/	D(o-	.	2c\	-tiſ-	.	2ee\	So-	.
.	.	.	2c\	-si-	.	2ee\	-lus	.
4C/	-mi)-	.	.	.	.	.	.	.
2GG,</	-nus	.	2B\	-mus	.	2dd\	al-	.
=69-	=69-	=69-	=69-	=69-	=69-	=69-	=69-	=69-
2C/	Tu	.	2.e\	tu	.	2.cc\	-tiſ-	.
2E\	So-	.	.	.	.	.	.	.
.	.	.	4e\	So-	.	4cc\	-si-	.
4G\	-lus	.	4d\	-lus	.	4b\,<	-mus	.
4G\	al-	.	4d\	al-	.	4b\	tu	.
=70-	=70-	=70-	=70-	=70-	=70-	=70-	=70-	=70-
2.C/	-tiſ-	.	2.c\	-tiſ-	.	2.ee\	So-	.
4C/	-si-	.	4c\	-ſi-	.	4ee\	-lus	.
!	!	!	!LO:SIC:v:t=custos e	!	!	!	!	!
2GG,</	-mus	.	2B\	-mus	.	2dd\	tu	.
=71-	=71-	=71-	=71-	=71-	=71-	=71-	=71-	=71-
!	!	!	!LO:LB:g=original	!	!	!	!	!
4AA/	Al-	.	2.e\	al-	.	2.cc\	So-	.
4BB/	.	.	.	.	.	.	.	.
4C/	.	.	.	.	.	.	.	.
4D/	.	.	8d\L	.	.	8b\L	.	.
.	.	.	8c\J	.	.	8a\J	.	.
!	!	!	!	!	!	!LO:TX:t=P:problem:♯below	!	!
!LO:SIC:v:t=custos C	!	!	!	!	!	!LO:SIC:v:t=custos e	!	!
2E\	.	.	2B\	.	.	2g#X/	-lus	.
=72-	=72-	=72-	=72-	=72-	=72-	=72-	=72-	=72-
!LO:LB:g=original	!	!	!	!	!	!LO:LB:g=original	!	!
2C/	.	.	2c\	.	.	2ee\	al-	.
2D/	-tiſ-	.	2.B\	-tiſ-	.	2dd\	-tiſ-	.
2E\	-si-	.	.	.	.	2b\	-ſi-	.
.	.	.	4B\	-ſi-	.	.	.	.
=73-	=73-	=73-	=73-	=73-	=73-	=73-	=73-	=73-
*M2/1	*	*	*M2/1	*	*	*M2/1	*	*
*met(c|)	*	*	*met(c|)	*	*	*met(c|)	*	*
2AA,</	-mus	.	2A,</	-mus	.	1cc\	-mus	.
1Fny\	Je-	.	2.c\	Je-	.	.	.	.
.	.	.	.	.	.	2r	.	.
.	.	.	4d\	.	.	.	.	.
2E\	-su	.	2e\	.	.	1cc\	Je-	.
=74-	=74-	=74-	=74-	=74-	=74-	=74-	=74-	=74-
0D\	Chri-	.	2A/	.	.	.	.	.
.	.	.	2B\	-ſu	.	2b\	-su	.
.	.	.	1d\	Chri-	.	1a\	Chri-	.
=75-	=75-	=75-	=75-	=75-	=75-	=75-	=75-	=75-
2GG/	-ſte	.	2d\	-ſte	.	2b\	-ſte	.
4r	.	.	4r	.	.	4r	.	.
!	!	!	!	!	!	!LO:TX:t=P:problem:kreska pseudotaktowa	!	!
4C/	Cum	.	4e\	Cum	.	4cc\	Cum	.
!	!	!	!	!	!	!LO:LB:g=original	!	!
4C/	San-	.	4c\	San-	.	4ee\	San-	.
4GG/	-cto	.	4d\	-cto	.	4dd\	-cto	.
4.C/	Spi-	.	4.e\	Spi-	.	4.cc\	Spi-	.
!	!	!	!LO:SIC:v:t=custos d	!	!	!	!	!
8C/	-ri-	.	8e\	-ri-	.	8cc\	-ri-	.
=76-	=76-	=76-	=76-	=76-	=76-	=76-	=76-	=76-
!	!	!	!LO:LB:g=original	!	!	!	!	!
4G\,<	-tu	.	4d\	-tu	.	4dd,<\	-tu	.
*	*	*	*	*ij	*	*	*ij	*
4GG/	Cum	.	4B\	Cum	.	4dd\	Cum	.
4C/	San-	.	4c\	San-	.	4ee\	San-	.
4BB/	-cto	.	4d\	-cto	.	4dd\	-cto	.
2.C/	Spi-	.	2.e\	Spi-	.	2.cc\	Spi-	.
!LO:SIC:v:t=custos GG	!	!	!	!	!	!LO:SIC:v:t=custos b	!	!
4C/	-ri-	.	4e\	-ri-	.	4cc\	-ri-	.
=77-	=77-	=77-	=77-	=77-	=77-	=77-	=77-	=77-
*M3/2	*	*	*M3/2	*	*	*M3/2	*	*
!LO:LB:g=original	!	!	!	!	!	!LO:LB:g=original	!	!
1GG/,<	-tu	.	1d\,<	-tu	.	1b\,<	-tu	.
*	*	*below	*	*Xij	*below	*	*Xij	*
2G\	In	f	2B\	In	f	2dd\	In	.
=78-	=78-	=78-	=78-	=78-	=78-	=78-	=78-	=78-
*	*	*	*	*	*	*	*	*below
2.G\	glo-	.	2.B\	glo-	.	2.dd\	glo-	f
4G\	-ri-	.	4B\	-ri-	.	4dd\	-ri-	.
2E\	-a	.	2c\	-a	.	2ee\	-a	.
=79-	=79-	=79-	=79-	=79-	=79-	=79-	=79-	=79-
1F\	De-	.	1A\	De-	.	1cc\	De-	.
2D/	-i	.	2B\	-i	.	2dd\	-i	.
=80-	=80-	=80-	=80-	=80-	=80-	=80-	=80-	=80-
2.E\	Pa-	.	2.G/	Pa-	.	2.b\	Pa-	.
4C/	-tris	.	4G/	-tris	.	4cc\	-tris	.
!	!	!	!LO:TX:t=P:problem:♯below	!	!	!	!	!
2D/	A-	.	2F#X/	A-	.	2a\	A-	.
=81-	=81-	=81-	=81-	=81-	=81-	=81-	=81-	=81-
1GG/,<	-men	.	1G/,<	-men	.	1gny\,<	-men	.
*	*	*	*	*	*	*	*ij	*
2G\	In	.	2d\	in	p	2b\	In	p
=82-	=82-	=82-	=82-	=82-	=82-	=82-	=82-	=82-
!	!	!LO:DY:t=Piano	!	!	!	!	!	!
2.G\	glo-	p	2.d\	glo-	.	2.b\	glo-	.
!	!	!	!LO:SIC:v:t=custos d	!	!	!	!	!
4G\	-ri-	.	4d\	-ri-	.	4b\	-ri-	.
!	!	!	!LO:LB:g=original	!	!	!	!	!
2E\	-a	.	2e\	-a	.	2cc\	-a	.
=83-	=83-	=83-	=83-	=83-	=83-	=83-	=83-	=83-
1F\	De-	.	1c\	De-	.	1a\	De-	.
2D/	-i	.	2d\	-i	.	2b\	-i	.
=84-	=84-	=84-	=84-	=84-	=84-	=84-	=84-	=84-
(2.E\	Pa-	.	2.B\	Pa-	.	2.g/	Pa-	.
4C/)	-tris	.	4c\	-tris	.	4g/	-tris	.
!	!	!	!	!	!	!LO:TX:t=P:problem:♯below	!	!
!LO:SIC:v:t=custos GG	!	!	!	!	!	!LO:SIC:v:t=custos g	!	!
2D/	A-	.	2A/	A-	.	2f#X/	A-	.
=85-	=85-	=85-	=85-	=85-	=85-	=85-	=85-	=85-
!LO:LB:g=original	!	!	!LO:TX:t=P:problem:kreska pseudotaktowa	!	!	!LO:LB:g=original	!	!
1.GG/,<	-men	.	1.B\	-men	.	1.g\	-men	.
*	*	*	*	*	*	*	*Xij	*
=86-	=86-	=86-	=86-	=86-	=86-	=86-	=86-	=86-
1G\	A-	f	2.B\	A-	.	1dd\	A-	f
.	.	.	4c\	.	f	.	.	.
2G\	-men	.	2d\	-men	.	2b\	-men	.
=87-	=87-	=87-	=87-	=87-	=87-	=87-	=87-	=87-
*	*	*	*	*ij	*	*	*ij	*
1GG/	a-	.	1B\	A-	.	1dd\	A-	.
!	!	!	!LO:TX:t=P:problem:kreska pseudotaktowa	!	!	!	!	!
2GG,</	-men	.	2d\	-men	.	2b\	-men	.
*	*	*	*	*Xij	*	*	*Xij	*
=88-	=88-	=88-	=88-	=88-	=88-	=88-	=88-	=88-
!	!	!LO:DY:t=Piano	!	!	!	!	!	!
1G\	A-	p	1d\	a-	p	2.b\	a-	.
!	!	!	!	!	!	!LO:TX:t=P:problem:to prawdopodobnie "pno" ale bardzo niekonkretne :)	!	!
.	.	.	.	.	.	4cc\	.	p
2GG/	-men	.	2B\	-men	.	2dd\	-men	.
=89-	=89-	=89-	=89-	=89-	=89-	=89-	=89-	=89-
*	*	*	*	*ij	*	*	*ij	*
1GG/	a-	.	1d\	a-	.	1b\	a-	.
!	!	!	!LO:TX:t=P:problem:kreska pseudotaktowa	!	!	!	!	!
2GG/	-men	.	2B\	-men	.	2dd\	-men	.
*	*	*	*	*Xij	*	*	*Xij	*
=90-	=90-	=90-	=90-	=90-	=90-	=90-	=90-	=90-
1G\	De-	f	1d\	De-	f	1g\	De-	f
!LO:TX:t=P:problem:♯below	!	!	!	!	!	!	!	!
2F#X\	-i	.	2d\	-i	.	2a\	-i	.
=91-	=91-	=91-	=91-	=91-	=91-	=91-	=91-	=91-
1G\	Pa-	.	(1d\	Pa-	.	1b\	Pa-	.
!	!	!	!LO:SIC:v:t=custos d	!	!	!	!	!
2C/	-tris	.	2e\)	-tris	.	2cc\	-tris	.
=92-	=92-	=92-	=92-	=92-	=92-	=92-	=92-	=92-
!	!	!	!LO:LB:g=original	!	!	!	!	!
4GG/	A-	.	1.d\,<	.	.	(1b\	a-	.
4AA/	.	.	.	.	.	.	.	.
4BB/	.	.	.	.	.	.	.	.
4C/	.	.	.	.	.	.	.	.
2D,</	-men	.	.	.	.	2a\)	.	.
=93-	=93-	=93-	=93-	=93-	=93-	=93-	=93-	=93-
2BB/	A-	.	2d\	a-	.	2b\	-men	.
2C/	.	.	2e\	.	.	4a\	De-	.
.	.	.	.	.	.	4g\	.	.
!	!	!	!LO:TX:t=P:problem:kreska pseudotaktowa	!	!	!	!	!
2D/	.	.	2d\	-men	.	4a\	.	.
!	!	!	!	!	!	!LO:SIC:v:t=custos g	!	!
.	.	.	.	.	.	4b\	.	.
=94-	=94-	=94-	=94-	=94-	=94-	=94-	=94-	=94-
!	!	!	!	!	!	!LO:LB:g=original	!	!
*	*	*	*	*ij	*	*	*	*
!LO:LB:g=original	!	!	!	!	!	!	!	!
2GG,</	-men	.	2B\	a-	.	2g/	-i	.
!	!	!LO:DY:t=Piano	!	!	!	!	!	!LO:DY:t=Piano
2G\	De-	p	2G/	.	p	2dd\	Pa-	p
!LO:TX:t=P:problem:♯below	!	!	!	!	!	!	!	!
2F#X\	-i	.	2A,</	-men	.	2dd\	-tris	.
*	*	*	*	*Xij	*	*	*	*
=95-	=95-	=95-	=95-	=95-	=95-	=95-	=95-	=95-
1G\	Pa-	.	1B\	De-	.	1dd\	a-	.
2C/	-tris	.	2c\	-i	.	2ee\	.	.
=96-	=96-	=96-	=96-	=96-	=96-	=96-	=96-	=96-
4GG/	A-	.	1B\	Pa-	.	1.dd\	-men	.
4AA/	.	.	.	.	.	.	.	.
4BB/	.	.	.	.	.	.	.	.
4C/	.	.	.	.	.	.	.	.
2D,</	-men	.	2A/	-tris	.	.	.	.
=97-	=97-	=97-	=97-	=97-	=97-	=97-	=97-	=97-
*	*	*	*	*	*	*	*ij	*
2BB/	A-	.	2B\	A-	.	2dd\	a-	.
2C/	.	.	1A\	-men	.	2ee\	.	.
2D/	.	.	.	.	.	2dd\	-men	.
=98-	=98-	=98-	=98-	=98-	=98-	=98-	=98-	=98-
*M2/1	*	*	*M2/1	*ij	*	*M2/1	*Xij	*
*met(c|)	*	*	*met(c|)	*	*	*met(c|)	*	*
2GG/	-men	.	2B\	A-	.	2dd\	A-	.
1C/	A-	.	1e\	.	f	1cc\	-men	.
2BB/	.	.	2d\	-men	.	2.dd\	A-	.
*	*	*	*	*Xij	*	*	*	*
=99-	=99-	=99-	=99-	=99-	=99-	=99-	=99-	=99-
1D\	.	.	1d\	A-	.	.	.	.
.	.	.	.	.	.	8cc\L	.	.
.	.	.	.	.	.	8b\J	.	.
.	.	.	.	.	.	2a\	.	.
!LO:TX:t=P:problem:brak kreski finalnej	!	!	!LO:TX:t=P:problem:brak kreski finalnej	!	!	!LO:TX:t=P:problem:brak kreski finalnej	!	!
!LO:N:vis=0	!	!	!LO:N:vis=0	!	!	!LO:N:vis=0	!	!
1GG/	-men.	.	1d\	-men.	.	1b\	-men.	.
==	==	==	==	==	==	==	==	==
*-	*-	*-	*-	*-	*-	*-	*-	*-
!!!system-decoration: [(s1,s2,s3)]
!!!RDF**kern: > = above
!!!RDF**kern: < = below
!!!RDF**dynam: f = "Forte"
!!!RDF**dynam: p = "echo"
!!!EED: Andrzej Borzym
!!!EST: 2021-03-24
!!!AIN: 1 empty 1 tenor 1 vox
!!!ENC: Andrzej Borzym
!!!END: 2021-03-10
